!!! OTL: Literature70
!!! Chapter: 5
!!! Section: II
!!! Page: 360
!!! Mode: 
!!! Encoder: ESM
**kern
*staff1
*I"Piano
=1-
*clefC3
*k[]
*a:
*M3/4
2e\
8.a\L
16b\Jk
=2
2cc\
4b\
=3
2dd\
4a\
=4
2.b\
=5
4a\
4cc\
4ee\
=6
2ee\
4dd\
=7
4a\
4cc\
8.b\L
16a\Jk
=8
4a\
4g#\
4r
=9
2e\
8.a\L
16b\Jk
=10
2cc\
4b\
=11
2dd\
4a\
=12
2.b\
=13
4ee\
4ee\
4ee\
=14
!!linebreak:original
4.ee\
8dd\
8cc\L
8b\J
=15
8.a\L
16a\Jk
4.cc\
8b\
=16
4b\
2a\
==
*-
